X: 1
T:no name
R:polka
Z:id:hn-polka-36
M:2/4
L:1/8
K:G
B2 B>A|Bd ed|B>A Bd|B/A/G A2|B>c BA|Bd ed|e>f ed|ef g2:|
|:GB/d/ ed|gd ed|GB/d/ ed|B/A/G A2|GB/d/ ed|gd ed|e>f ed|ef g2:|
